assets/images/techs/sketch.svg

<?xml version="1.0" encoding="UTF-8"?>
<svg width="50px" height="46px" viewBox="0 0 50 46" version="1.1" xmlns="http://www.w3.org/2000/svg" xmlns:xlink="http://www.w3.org/1999/xlink">
    <title>sketch</title>
    <g id="Page-1" stroke="none" stroke-width="1" fill="none" fill-rule="evenodd">
        <g id="sketch" fill="#133A94" fill-rule="nonzero">
            <path d="M25,0.604156 L39.0625,14.4312 L39.0625,2.16666 L25,0.604156 Z M25,0.604156 L12.3958,15.1875 L37.6042,15.1875 L25,0.604156 Z M25,0.604156 L10.9375,2.16666 L10.9375,14.4312 L25,0.604156 Z M10.9375,2.16666 L0,16.75 L9.2,15.3333 L10.9375,2.16666 Z M0,16.75 L24.9146,45.2979 L24.9312,45.2687 L9.25625,16.75 L0,16.75 Z M39.0625,2.16666 L40.8,15.3333 L50,16.75 L39.0625,2.16666 Z M50,16.75 L40.6125,16.75 L24.9396,45.2708 L25,45.3958 L50,16.75 Z M25,45.3958 L24.9354,45.2771 L24.9188,45.3021 L25,45.3958 Z M11.325,16.75 L24.9354,45.2625 L38.675,16.75 L11.325,16.75 Z" id="Shape"></path>
        </g>
    </g>
</svg>

<svg width="50" height="46" xmlns="http://www.w3.org/2000/svg"><path d="M25 .604l14.063 13.827V2.167L25 .604zm0 0L12.396 15.188h25.208L25 .604zm0 0L10.937 2.167V14.43L25 .604zM10.937 2.167L0 16.75l9.2-1.417 1.738-13.166zM0 16.75l24.915 28.548.016-.03L9.256 16.75H0zM39.063 2.167L40.8 15.333 50 16.75 39.062 2.167zM50 16.75h-9.388L24.94 45.27l.06.126L50 16.75zM25 45.396l-.065-.119-.016.025.081.094zM11.325 16.75l13.61 28.513 13.74-28.513h-27.35z" fill="#133A94" fill-rule="nonzero"/></svg>
